svgs/regular/wand-magic-sparkles.svg

<svg xmlns="http://www.w3.org/2000/svg" viewBox="0 0 576 512"><!--! Font Awesome Pro 6.0.0-alpha3 by @fontawesome - https://fontawesome.com License - https://fontawesome.com/license (Commercial License) --><path d="M35.68 133.1l49.64 20.7l20.7 49.64c1.016 2.043 3.697 3.695 5.977 3.695c.0078 0-.0078 0 0 0C114.3 207.1 116.9 206.3 117.9 204.3l20.72-49.63l49.62-20.71c2.023-1.012 3.664-3.676 3.676-5.938C191.9 125.8 190.3 123 188.3 122L138.9 101.4L138.5 101L117.9 51.7C116.9 49.66 114.3 48.02 112 48c-.0078 0 .0078 0 0 0c-2.279 0-4.966 1.648-5.981 3.691L85.32 101.3L35.68 122C33.65 123.1 32 125.7 32 127.1C32 130.2 33.65 132.9 35.68 133.1zM239.1 63.1l12.42 29.78C253 95.01 254.6 96 255.1 96s2.965-.9941 3.574-2.219l12.42-29.8l29.78-12.4c1.219-.6094 2.216-2.219 2.216-3.579c0-1.365-.9974-2.968-2.216-3.577L271.1 32l-12.42-29.78C258.1 .9912 257.4 0 255.1 0S253 .9912 252.4 2.218l-12.42 29.78L210.2 44.42c-1.215 .6094-2.209 2.212-2.209 3.577c0 1.359 .9945 2.969 2.209 3.579L239.1 63.1zM540.3 378l-49.57-20.67l-20.77-49.67C468.9 305.7 466.3 304 464 304c-2.281 0-4.949 1.652-5.965 3.695l-20.7 49.63l-49.64 20.71c-2.027 1.016-3.676 3.679-3.68 5.954c.0039 2.262 1.654 4.956 3.68 5.97l49.57 20.67l20.77 49.67C459.1 462.3 461.7 464 464 464c2.277 0 4.943-1.656 5.959-3.699l20.7-49.63l49.65-20.71c2.027-1.014 3.682-3.68 3.686-5.942C543.1 381.7 542.3 379.1 540.3 378zM529.9 48l-33.92-33.94C486.6 4.688 474.4 0 462.1 0s-24.57 4.686-33.94 14.06L46.06 396.1c-18.75 18.74-18.75 49.13-.0039 67.88l33.93 33.95C89.36 507.3 101.6 512 113.9 512s24.57-4.686 33.94-14.06L529.9 115.9C548.7 97.13 548.7 66.75 529.9 48zM113.9 464L80 430.1l238.1-238.1l33.95 33.95L113.9 464zM385.9 192l-33.95-33.95l110.1-110c.0059-.002-.0234 0 0 0L496 81.94L385.9 192z"/></svg>

<svg xmlns="http://www.w3.org/2000/svg" viewBox="0 0 576 512"><!-- Font Awesome Pro 6.0.0-alpha2 by @fontawesome - https://fontawesome.com License - https://fontawesome.com/license (Commercial License) --><path d="M35.682 133.963L85.321 154.662L106.02 204.301C107.035 206.344 109.705 208 111.985 208C111.992 208 112 207.992 112.008 207.992L112.012 208L112.018 207.99C114.289 207.975 116.932 206.334 117.944 204.301L138.502 155.004L138.668 154.672L138.903 154.555L188.285 133.963C190.309 132.951 191.949 130.287 191.961 128.025L192.01 128L191.961 127.977C191.949 125.707 190.311 123.049 188.285 122.037L138.879 101.434L138.668 101.328L138.508 101.006L117.944 51.695C116.932 49.662 114.289 48.025 112.018 48.01L112.012 48L112.008 48.008C112 48.008 111.992 48 111.985 48C109.705 48 107.035 49.652 106.02 51.695L85.321 101.336L35.682 122.037C33.653 123.053 32 125.721 32 127.998C32 130.264 33.653 132.947 35.682 133.963ZM239.996 63.998L252.416 93.781C253.026 95.006 254.627 96 255.994 96S258.961 95.006 259.571 93.781L271.99 63.998L301.774 51.578C302.992 50.969 303.985 49.357 303.985 47.998C303.985 46.633 302.992 45.031 301.774 44.422L271.99 32.002L259.571 2.217C258.961 0.99 257.362 0 255.994 0S253.026 0.99 252.416 2.217L239.996 32.002L210.211 44.422C208.996 45.031 208.004 46.633 208.004 47.998C208.004 49.357 208.996 50.969 210.211 51.578L239.996 63.998ZM540.303 378.037L490.733 357.365L490.658 357.328L469.961 307.695C468.946 305.652 466.28 304 464.002 304C461.721 304 459.053 305.652 458.037 307.695L437.34 357.33L437.291 357.355L387.699 378.037C385.672 379.053 384.024 381.717 384.02 383.992L384.004 384L384.022 384.008C384.026 386.27 385.674 388.949 387.699 389.963L437.268 410.633L437.342 410.67L458.037 460.301C459.053 462.344 461.721 464 464.002 464C466.28 464 468.946 462.344 469.961 460.301L490.656 410.674L490.658 410.672L490.756 410.623L540.303 389.963C542.33 388.949 543.979 386.27 543.983 384.008L544 384L543.985 383.992C543.981 381.717 542.332 379.053 540.303 378.037ZM529.944 48L496.02 14.061C486.649 4.688 474.362 0 462.076 0S437.51 4.686 428.137 14.059L46.061 396.109C27.315 414.854 27.313 445.244 46.057 463.99L79.99 497.938C89.362 507.311 101.649 512 113.934 512S138.5 507.314 147.873 497.941L529.942 115.879C548.686 97.135 548.686 66.746 529.944 48ZM113.94 464.004L80 430.051L318.051 191.988L352.002 225.939L113.94 464.004ZM385.938 192L351.989 158.051L462.03 48.004C462.035 48.002 462.053 48 462.076 48L496 81.938L385.938 192Z"/></svg>
